images/logo.svg

<svg xmlns="http://www.w3.org/2000/svg" xml:space="preserve" height="512" width="512" y="0" x="0" id="NexT" version="1.1"><path id="path3384" d="M256.4 25.8l-200 115.5-.4 230.2 199.6 114.7 200-115.5.4-230.2zM349 354.6l-18.4 10.7-18.6-11L200 212v142.6l-18.4 10.7-18.6-11v-197l18.5-10.6 18.5 10.8L312 302V157.4l18.5-10.6 18.5 10.8z" fill="#222" fill-opacity="1"/></svg>

<?xml version="1.0" encoding="UTF-8" standalone="no"?><svg xmlns:dc="http://purl.org/dc/elements/1.1/" xmlns:cc="http://creativecommons.org/ns#" xmlns:rdf="http://www.w3.org/1999/02/22-rdf-syntax-ns#" xmlns:svg="http://www.w3.org/2000/svg" xmlns="http://www.w3.org/2000/svg" xml:space="preserve" enable-background="new 0 0 512 512" height="512px" width="512px" y="0px" x="0px" version="1.1"><metadata><rdf:RDF><cc:Work rdf:about=""><dc:format>image/svg+xml</dc:format><dc:type rdf:resource="http://purl.org/dc/dcmitype/StillImage"/><dc:title/></cc:Work></rdf:RDF></metadata><defs/><path style="fill:#222222;fill-opacity:1" d="M 256.4,25.8 56.4,141.3 56,371.5 255.6,486.2 455.6,370.7 456,140.5 Z m 92.6,328.8 -18.4,10.7 -18.6,-11 0,0 -112,-142.3 0,142.6 -18.4,10.7 -18.6,-11 0,-197 18.5,-10.6 18.5,10.8 0,0 112,144.5 0,-144.6 18.5,-10.6 18.5,10.8 z"/></svg>
